X: 14027
T: Frankie Drains
R: reel
M: 4/4
K: Eminor
|:BE~E2 GEDE|GABG A2 B/c/d|e2Be deBG|AcBG AGED|
E3G BE~E2|GEDE GA B/c/d|e2Be edBA|1 AGED EAcA:|2 AGED EDEF||
G2GE GABG|A2AG A2 B/c/d|e2Be deBG|AcBG AGED|
G2GE GABG|A2AG A2 B/c/d|e2Be edBA|AGED EGGF|
G2GE GABG|A2AG A2 B/c/d|e2Be deBG|AcBG Acdc|
BE~E2 GEDE|GABG A2 B/c/d|e2Be edBA|AGED EAcA||

